X:1
T:Title
%%score { ( 1 3 ) | ( 2 4 ) }
L:1/8
Q:1/4=100
M:2/4
K:G
V:1 treble nm="Grand Piano"
V:3 treble 
V:2 bass 
V:4 bass 
V:1
 DG G>A | BG G2 | D[FA] [FA]>[FB] | [Fc][FA] [FA]2 | DG B>[=Fd] | [Ed][Ec] [Ec]2 | %6
w: W.~S.~Weeden * * *||||||
 [DB][DG] [Fc]>[GB] | [FA]4 | DG G>A | BG G2 | D[FA] [FA]>[FB] | [Fc][FA] [FA]2 | DG B>[=Fd] | %13
w: |||||||
 [Ed][Ec] [Ec]2 | [DB][B,D] [CFA]>[DFB] | [B,G]4 | [Gd]4 | [Ge][EA] [EAc]2 | [Fc]4 | dG B2 | B4 | %21
w: ||||||||
 [EGc][DEB] [CEA][A,EG] | [A,DF][Fc] [FB][FA] | GF ED | d4 | [Ge][EA] [EAc]2 | [Fc]4 | dG B2 | B4 | %29
w: ||||||||
 [EGc][DEB] [CEA][A,EG] | [A,DF][Fc] [FB][FA] | G4 |] %32
w: |||
V:2
 [G,B,][G,B,D] [G,B,D]>[G,CD] | [G,D][G,B,D] [G,B,D]2 | [F,A,][D,C] [D,C]>[D,B,] | %3
 [D,A,][D,D] [D,D]2 | [G,B,][K:treble][G,B,D] [G,DG]>[K:bass][B,,G,] | [C,G,][C,G,] [C,G,]2 | %6
 [D,G,][D,B,] [D,A,]>[D,D] | [D,D]4 | [G,B,][G,B,D] [G,B,D]>[G,CD] | [G,D][G,B,D] [G,B,D]2 | %10
 [F,A,][D,C] [D,C]>[D,B,] | [D,A,][D,D] [D,D]2 | [G,B,][K:treble][G,B,D] [G,DG]>[K:bass][B,,G,] | %13
 [C,G,][C,G,] [C,G,]2 | [D,G,]D, D,>D, | G,4 | [G,B,]G, G,[K:treble][G,_B,G]/[G,=B,G]/ | %17
 [C,C][C,C] C,2 | [D,A,]D, D,[D,^G,]/[D,A,]/ | [G,B,G][G,B,D] [G,DG]2 | G4[K:bass] | C,C, C,^C, | %22
 D,[D,A,] [D,B,][D,C] | [D,A,C][D,A,C] [E,A,C][F,A,C] | G4 | [C,C][C,C] C,2 | %26
 [D,A,]D, D,[D,^G,]/[D,A,]/ | [G,B,G][G,B,D] [G,DG]2 | G4[K:bass] | C,C, C,^C, | %30
 D,[D,A,] [D,B,][D,C] | [G,B,]4 |] %32
V:3
 x4 | x4 | x4 | x4 | x4 | x4 | x4 | x4 | x4 | x4 | x4 | x4 | x4 | x4 | x4 | x4 | z B, B,^c/d/ | %17
 x4 | z A, A,[FB]/[Fc]/ | x4 | z D/D/ D[CGA]/[DGB]/ | x4 | x4 | x4 | z B, B,^c/d/ | x4 | %26
 z A, A,[FB]/[Fc]/ | x4 | z D/D/ D[CGA]/[DGB]/ | x4 | x4 | x4 |] %32
V:4
 x4 | x4 | x4 | x4 | x[K:treble] x5/2[K:bass] x/ | x4 | x4 | x4 | x4 | x4 | x4 | x4 | %12
 x[K:treble] x5/2[K:bass] x/ | x4 | x4 | x4 | x3[K:treble] x | x4 | x4 | x4 | %20
 [G,D]G,/[K:bass]G,/ G,G,/G,/ | x4 | x4 | x4 | [G,B,]G, G,[G,_B,G]/[G,=B,G]/ | x4 | x4 | x4 | %28
 [G,D]G,/[K:bass]G,/ G,G,/G,/ | x4 | x4 | x4 |] %32

